X:91
T:Love that has undone me, The
T:'S olc a chuir a'mhire rium
R:Slow Air
S:Simon Fraser Collection
N:No.228
O:Scottish
M:C
L:1/8
Q:1/4=100
K:E_
E|G2 e>c (Bc) G>E|G<B e>c B>G F>E|G2 e>c (Bc) G>c|B>DE>G F>E E:|
B|G<ee<g (Bc) G>B|Gee3/2f/4g/4 fG F2|G<e e>c B>AG>c|B>DE>G F<E E2|
g>fe>d c>B G2|g>fe>c B>G F2|G>BF>E F<G e>d|c>B(GB) F>E E||

